src/pos-icons/shield-plus.svg

<svg height="24" viewBox="0 0 24 24" width="24" xmlns="http://www.w3.org/2000/svg"><path d="m19 20v2.97h-2v-2.97h-3v-2h3v-3h2v3h3v2zm-7-19 9 4v6c0 .9-.1 1.78-.29 2.65-.81-.42-1.71-.65-2.71-.65a6 6 0 0 0 -6 6c0 1.36.45 2.62 1.22 3.62l-1.22.38c-5.16-1.26-9-6.45-9-12v-6z"/></svg>

<?xml version="1.0" encoding="UTF-8"?><!DOCTYPE svg PUBLIC "-//W3C//DTD SVG 1.1//EN" "http://www.w3.org/Graphics/SVG/1.1/DTD/svg11.dtd"><svg xmlns="http://www.w3.org/2000/svg" xmlns:xlink="http://www.w3.org/1999/xlink" version="1.1" id="mdi-shield-plus" width="24" height="24" viewBox="0 0 24 24"><path d="M19,20V22.97H17V20H14V18H17V15H19V18H22V20H19M12,1L21,5V11C21,11.9 20.9,12.78 20.71,13.65C19.9,13.23 19,13 18,13A6,6 0 0,0 12,19C12,20.36 12.45,21.62 13.22,22.62L12,23C6.84,21.74 3,16.55 3,11V5L12,1Z" /></svg>
